X: 13
T: Song of Painting the Sacred Pole
C: Teton Sioux band 1911-1914
N: Derived from sioux013.krn
O: South Dakota, U.S.A.
N: Teton Sioux Music by Frances Densmore, 1918
Z: transcribed to **kern format by Craig Sapp
L: 1/4
M: 2/4
Q: 1/4=58
K: A clef=bass
%%linebreak <none>
C [I:setbarnb 1]| 
CC | 
C2- | 
C2- | 
C3/C/ | 
B,2 | 
A,A, | 
A,2- | 
A,2- | 
A,2 ||  
[M:3/4]F,F,B, ||  
[M:2/4]B,2- | 
B,2- | 
B,3/B,/ | 
A,2 | 
F,F, | 
F,2- | 
F,2- | 
F,2 | 
F,F, | 
B,B, | 
B,B, | 
B,C | 
B,2 | 
A,2 | 
F,A, | 
A,A, | 
A,2- | 
A,2- | 
A,3/A,/ | 
A,2 | 
F,F, | 
F,2- | 
F,2- | 
F,2 ||  
[M:3/4]F,C,C, ||  
[M:2/4]C,2- | 
C,2- | 
C,3/C,/ | 
B,,2 | 
A,,A,, | 
A,,2- | 
A,,2- | 
A,,2 | 
B,,B,, | 
B,,B,, | 
B,,B,, | 
B,,C, | 
B,,2 | 
A,,2 | 
F,,A,, | 
A,,A,, | 
A,,2- | 
A,,2- | 
A,,3/A,,/ | 
A,,2 | 
F,,F,, | 
F,,2- | 
F,,2 |]  



